src/icons/service-microsoft-teams.svg

<svg clip-rule="evenodd" fill-rule="evenodd" stroke-linejoin="round" stroke-miterlimit="1.41421" viewBox="0 0 220 220" xmlns="http://www.w3.org/2000/svg"><circle cx="116.875" cy="41.25" fill="#7b83eb" r="32.085999"/><path d="m114.58599854 48.125h-29.05400085l.14399999.639.014.055.14399999.59200001c4.36199999 16.5340004 21.20299911 26.83399963 37.9090004 23.18199921v-15.3039999c-.015-5.02099991-4.1420002-9.14900017-9.16399956-9.16399956z" fill-opacity=".098039" fill-rule="nonzero"/><path d="m107.71099854 55h-19.82799911c5.30200005 11.18000031 16.61800003 18.33600044 28.99200058 18.33600044v-9.16499996c-.015-5.02199984-4.14300013-9.14900017-9.16399956-9.16399956z" fill-opacity=".2" fill-rule="nonzero"/><circle cx="189.062988" cy="51.563004" fill="#5059c9" r="24.063"/><g fill-rule="nonzero"><path d="m209.68798828 82.5h-54.04499817c-2.41000009 0-4.39300013 1.98300004-4.39300013 4.39300013v55.75600052c-.31 16.56999969 11.11999989 31.22500038 27.26600075 34.95999908 2.32500005.48800001 4.69299984.73300004 7.06799984.73300004 18.87199974 0 34.40399933-15.52099991 34.41600037-34.39300156v-51.13700104c0-5.65700006-4.65500021-10.31200027-10.31200027-10.31200027z" fill="#5059c9"/><path d="m171.875 92.81300354v65.34300232c0 30.15299988-24.81200027 54.96500015-54.9659996 54.96500015-19.61800003 0-37.80400085-10.50300026-47.60900116-27.49600029-1.32299995-2.19899988-2.47200012-4.49800014-3.43799996-6.875-.90000004-2.2420001-1.65700006-4.53800011-2.26799989-6.875-1.13399994-4.49599981-1.71099997-9.11400032-1.71899998-13.75v-65.31300354c0-.004 0-.009 0-.013 0-5.6500001 4.64900017-10.29899979 10.29899979-10.29899979h89.40200043c5.6500001 0 10.29899979 4.64900017 10.29899979 10.29899979z" fill="#7b83eb"/><path d="m107.71099854 55h-19.82799911c5.30200005 11.18000031 16.61800003 18.33600044 28.99200058 18.33600044v-9.16499996c-.015-5.02199984-4.14300013-9.14900017-9.16399956-9.16399956z" fill-opacity=".2"/><path d="m123.75 82.5v87.10600281c0 4.25500011-2.9920001 7.96600008-7.1500001 8.86900043-.64700007.192-1.31900001.285-1.99399996.27500001h-48.74399948c-.90000004-2.2420001-1.65700006-4.53800011-2.26799989-6.875-1.13399994-4.49599981-1.71099997-9.11400032-1.71899998-13.75v-65.31300354c0-.004 0-.009 0-.013 0-5.6500001 4.64900017-10.29899979 10.29899979-10.29899979z" fill-opacity=".098039"/><path d="m116.875 82.5v93.98100281c.01.67500001-.083 1.347-.27500001 1.99399996-.90300006 4.15799999-4.61399984 7.1500001-8.86900043 7.1500001h-38.43099976c-1.32299995-2.19899988-2.47200012-4.49800014-3.43700004-6.875-.90100002-2.2420001-1.65799999-4.53800011-2.26900005-6.875-1.13399994-4.49599981-1.71099997-9.11400032-1.71899998-13.75v-65.31300354c0-.004 0-.009 0-.013 0-5.6500001 4.64900017-10.29899979 10.29899979-10.29899979zm0 0v80.23100281c-.023 5.0079999-4.13600016 9.12100029-9.14400005 9.14400005h-44.13700104c-1.13399994-4.49599981-1.71099997-9.11400032-1.71899998-13.75v-65.31300354c0-.004 0-.009 0-.013 0-5.6500001 4.64900017-10.29899979 10.29899979-10.29899979zm-44.68799973 0c-.004 0-.009 0-.013 0-5.6500001 0-10.29899979 4.64900017-10.29899979 10.29899979v65.3259964c.008 4.63600016.58499998 9.25399971 1.71899998 13.75h37.26200104c5.0079999-.023 9.12100029-4.13600016 9.14400005-9.14400005v-80.23100281z" fill-opacity=".2"/><path d="m9.16400146 55h91.66500092c5.02699995 0 9.16399956 4.13700008 9.16399956 9.16399956v91.66500092c0 5.02699995-4.13700008 9.16399956-9.16399956 9.16399956h-91.66500092c-5.02699995 0-9.16399956-4.13700008-9.16399956-9.16399956v-91.66500092c0-5.02699995 4.13700008-9.16399956 9.16399956-9.16399956z" fill="#4b53bc"/><path d="m82.36300659 89.20300293h-20.54999924v55.13800049h-13.50199986v-55.13800049h-20.66699982v-13.54399967h54.71900177z" fill="#fff"/></g><path d="m0 0h220v220h-220z" fill="none"/></svg>

<svg clip-rule="evenodd" fill-rule="evenodd" stroke-linejoin="round" stroke-miterlimit="1.414" viewBox="0 0 220 220" xmlns="http://www.w3.org/2000/svg"><circle cx="116.875" cy="41.25" fill="#7b83eb" r="32.086"/><path d="M114.586 48.125H85.532l.144.639.014.055.144.592c4.362 16.534 21.203 26.834 37.909 23.182V57.289c-.015-5.021-4.142-9.149-9.164-9.164z" fill-opacity=".098" fill-rule="nonzero"/><path d="M107.711 55H87.883c5.302 11.18 16.618 18.336 28.992 18.336v-9.165c-.015-5.022-4.143-9.149-9.164-9.164z" fill-opacity=".2" fill-rule="nonzero"/><circle cx="189.063" cy="51.563" fill="#5059c9" r="24.063"/><g fill-rule="nonzero"><path d="M209.688 82.5h-54.045c-2.41 0-4.393 1.983-4.393 4.393v55.756c-.31 16.57 11.12 31.225 27.266 34.96 2.325.488 4.693.733 7.068.733 18.872 0 34.404-15.521 34.416-34.393V92.812c0-5.657-4.655-10.312-10.312-10.312z" fill="#5059c9"/><path d="M171.875 92.813v65.343c0 30.153-24.812 54.965-54.966 54.965-19.618 0-37.804-10.503-47.609-27.496a49.447 49.447 0 01-3.438-6.875 57.483 57.483 0 01-2.268-6.875 56.622 56.622 0 01-1.719-13.75V92.812v-.013c0-5.65 4.649-10.299 10.299-10.299h89.402c5.65 0 10.299 4.649 10.299 10.299z" fill="#7b83eb"/><path d="M107.711 55H87.883c5.302 11.18 16.618 18.336 28.992 18.336v-9.165c-.015-5.022-4.143-9.149-9.164-9.164z" fill-opacity=".2"/><path d="M123.75 82.5v87.106a9.101 9.101 0 01-7.15 8.869 6.66 6.66 0 01-1.994.275H65.862a57.483 57.483 0 01-2.268-6.875 56.622 56.622 0 01-1.719-13.75V92.812v-.013c0-5.65 4.649-10.299 10.299-10.299z" fill-opacity=".098"/><path d="M116.875 82.5v93.981a6.66 6.66 0 01-.275 1.994 9.101 9.101 0 01-8.869 7.15H69.3a49.33 49.33 0 01-3.437-6.875 57.31 57.31 0 01-2.269-6.875 56.622 56.622 0 01-1.719-13.75V92.812v-.013c0-5.65 4.649-10.299 10.299-10.299zm0 0v80.231c-.023 5.008-4.136 9.121-9.144 9.144H63.594a56.622 56.622 0 01-1.719-13.75V92.812v-.013c0-5.65 4.649-10.299 10.299-10.299zm-44.688 0h-.013c-5.65 0-10.299 4.649-10.299 10.299v65.326a56.622 56.622 0 001.719 13.75h37.262c5.008-.023 9.121-4.136 9.144-9.144V82.5z" fill-opacity=".2"/><path d="M9.164 55h91.665c5.027 0 9.164 4.137 9.164 9.164v91.665c0 5.027-4.137 9.164-9.164 9.164H9.164c-5.027 0-9.164-4.137-9.164-9.164V64.164C0 59.137 4.137 55 9.164 55z" fill="#4b53bc"/><path d="M82.363 89.203h-20.55v55.138H48.311V89.203H27.644V75.659h54.719z" fill="#fff"/></g><path d="M0 0h220v220H0z" fill="none"/></svg>
